Adwaita++-Dark/actions/22/draw-bezier-curves.svg

<svg fill="none" height="22" viewBox="0 0 22 22" width="22" xmlns="http://www.w3.org/2000/svg">
  <path d="m16.1429 3c-.6585.00013-1.2967.22769-1.8067.64419-.51.41649-.8605.99637-.9922 1.64152h-9.20114v1.14286c2.12023 1.09577 3.61725 2.83372 3.83703 3.77453.2384 1.02-.0272 2.185-.74103 3.4392-.423-.2338-.8984-.3565-1.38172-.3566-.3752 0-.74673.0739-1.09338.2175-.34664.1436-.66161.354-.92692.6194-.53582.5358-.83684 1.2625-.83684 2.0203 0 .7577.30102 1.4844.83684 2.0203.26531.2653.58028.4757.92692.6193.34665.1436.71818.2175 1.09338.2175.6585-.0001 1.29677-.2276 1.80682-.6441s.86057-.9964.99227-1.6416h3.48667v1.1428 1.1429h5.7142v-5.7143h-5.7142v1.1429 1.1428h-3.49113c-.0834-.4112-.25637-.7991-.50663-1.136.97406-1.5378 1.38149-3 1.05577-4.4176-.33577-1.46123-1.3536-2.60123-2.808-3.58923h6.95569c.1315.64439.4813 1.22368.9904 1.64009.509.41641 1.1462.64444 1.8039.64563.3752 0 .7467-.07391 1.0933-.21749.3467-.14359.6617-.35404.927-.61935s.4757-.58028.6193-.92693c.1436-.34664.2175-.71817.2175-1.09338 0-.75776-.301-1.48448-.8368-2.0203-.5359-.53582-1.2626-.83684-2.0203-.83684z" fill="#e6ddff"/>
</svg>

<svg xmlns="http://www.w3.org/2000/svg" fill="none" width="22" height="22" viewBox="0 0 22 22">
 <path fill="#E6DDFF" d="M16.1429 3C15.4844 3.00013 14.8462 3.22769 14.3362 3.64419C13.8262 4.06068 13.4757 4.64056 13.344 5.28571H4.14286V6.42857C6.26309 7.52434 7.76011 9.26229 7.97989 10.2031C8.21829 11.2231 7.95269 12.3881 7.23886 13.6423C6.81586 13.4085 6.34046 13.2858 5.85714 13.2857C5.48194 13.2857 5.11041 13.3596 4.76376 13.5032C4.41712 13.6468 4.10215 13.8572 3.83684 14.1226C3.30102 14.6584 3 15.3851 3 16.1429C3 16.9006 3.30102 17.6273 3.83684 18.1632C4.10215 18.4285 4.41712 18.6389 4.76376 18.7825C5.11041 18.9261 5.48194 19 5.85714 19C6.51564 18.9999 7.15391 18.7724 7.66396 18.3559C8.17401 17.9394 8.52453 17.3595 8.65623 16.7143H12.1429V17.8571V19H17.8571V13.2857H12.1429V14.4286V15.5714H8.65177C8.56837 15.1602 8.3954 14.7723 8.14514 14.4354C9.1192 12.8976 9.52663 11.4354 9.20091 10.0178C8.86514 8.55657 7.84731 7.41657 6.39291 6.42857H13.3486C13.4801 7.07296 13.8299 7.65225 14.339 8.06866C14.848 8.48507 15.4852 8.7131 16.1429 8.71429C16.5181 8.71429 16.8896 8.64038 17.2362 8.4968C17.5829 8.35321 17.8979 8.14276 18.1632 7.87745C18.4285 7.61214 18.6389 7.29717 18.7825 6.95052C18.9261 6.60388 19 6.23235 19 5.85714C19 5.09938 18.699 4.37266 18.1632 3.83684C17.6273 3.30102 16.9006 3 16.1429 3V3Z"/>
</svg>
